storage/app/icons/phosphoricons/thin/rows-plus-bottom-thin.svg

<svg xmlns="http://www.w3.org/2000/svg" fill="currentColor" viewBox="0 0 256 256"><path d="M208 116H48a12 12 0 0 0-12 12v24a12 12 0 0 0 12 12h160a12 12 0 0 0 12-12v-24a12 12 0 0 0-12-12m4 36a4 4 0 0 1-4 4H48a4 4 0 0 1-4-4v-24a4 4 0 0 1 4-4h160a4 4 0 0 1 4 4Zm-4-108H48a12 12 0 0 0-12 12v24a12 12 0 0 0 12 12h160a12 12 0 0 0 12-12V56a12 12 0 0 0-12-12m4 36a4 4 0 0 1-4 4H48a4 4 0 0 1-4-4V56a4 4 0 0 1 4-4h160a4 4 0 0 1 4 4Zm-56 136a4 4 0 0 1-4 4h-20v20a4 4 0 0 1-8 0v-20h-20a4 4 0 0 1 0-8h20v-20a4 4 0 0 1 8 0v20h20a4 4 0 0 1 4 4"/></svg>

<svg xmlns="http://www.w3.org/2000/svg" viewBox="0 0 256 256" fill="currentColor"><path d="M208,116H48a12,12,0,0,0-12,12v24a12,12,0,0,0,12,12H208a12,12,0,0,0,12-12V128A12,12,0,0,0,208,116Zm4,36a4,4,0,0,1-4,4H48a4,4,0,0,1-4-4V128a4,4,0,0,1,4-4H208a4,4,0,0,1,4,4ZM208,44H48A12,12,0,0,0,36,56V80A12,12,0,0,0,48,92H208a12,12,0,0,0,12-12V56A12,12,0,0,0,208,44Zm4,36a4,4,0,0,1-4,4H48a4,4,0,0,1-4-4V56a4,4,0,0,1,4-4H208a4,4,0,0,1,4,4ZM156,216a4,4,0,0,1-4,4H132v20a4,4,0,0,1-8,0V220H104a4,4,0,0,1,0-8h20V192a4,4,0,0,1,8,0v20h20A4,4,0,0,1,156,216Z"/></svg>
